wp-content/plugins/the-events-calendar/common/src/resources/images/icons/search.svg

<svg width="20px" height="20px" viewBox="0 0 20 20" version="1.1" xmlns="http://www.w3.org/2000/svg" xmlns:xlink="http://www.w3.org/1999/xlink">
    <path d="M20,18.7111111 L13.9555556,12.6666667 C15.0444444,11.2888889 15.6444444,9.6 15.6444444,7.82222222 C15.6444444,5.73333333 14.8222222,3.77777778 13.3555556,2.28888889 C11.8666667,0.822222222 9.91111111,0 7.82222222,0 C5.73333333,0 3.77777778,0.822222222 2.28888889,2.28888889 C0.822222222,3.75555556 0,5.73333333 0,7.82222222 C0,9.91111111 0.822222222,11.8666667 2.28888889,13.3555556 C3.75555556,14.8222222 5.73333333,15.6444444 7.82222222,15.6444444 C9.6,15.6444444 11.2888889,15.0444444 12.6666667,13.9555556 L18.7111111,20 L20,18.7111111 Z M3.57777778,12.0666667 C1.24444444,9.73333333 1.24444444,5.91111111 3.57777778,3.57777778 C4.71111111,2.44444444 6.22222222,1.82222222 7.82222222,1.82222222 C9.42222222,1.82222222 10.9333333,2.44444444 12.0666667,3.57777778 C14.4,5.91111111 14.4,9.73333333 12.0666667,12.0666667 C10.9333333,13.2 9.42222222,13.8222222 7.82222222,13.8222222 C6.22222222,13.8222222 4.71111111,13.2 3.57777778,12.0666667 Z" fill-rule="nonzero"></path>
</svg>

<svg width="20" height="20" xmlns="http://www.w3.org/2000/svg"><path d="M20 18.711l-6.044-6.044a7.782 7.782 0 0 0 1.688-4.845c0-2.089-.822-4.044-2.288-5.533C11.866.822 9.91 0 7.822 0S3.778.822 2.29 2.289A7.801 7.801 0 0 0 0 7.822c0 2.09.822 4.045 2.289 5.534a7.801 7.801 0 0 0 5.533 2.288c1.778 0 3.467-.6 4.845-1.688L18.71 20 20 18.711zM3.578 12.067c-2.334-2.334-2.334-6.156 0-8.49a5.968 5.968 0 0 1 4.244-1.755c1.6 0 3.111.622 4.245 1.756 2.333 2.333 2.333 6.155 0 8.489a5.968 5.968 0 0 1-4.245 1.755c-1.6 0-3.11-.622-4.244-1.755z"/></svg>
